X:0968
T:Banks of the Yarrow.
M:3/8
L:1/8
Q:3/8=40
I: || ||
Z:Jack Campin * www.campin.me.uk * 2009
K:G
G/A/|BBd|g2d/c/|BGB|{G}F2 G/F/| EFG   |ABG   | FD
z/g/|gba|gfe   |dBG|   E2 d   |Hg2G/A/|BcA   | FG||
B   |eBA|GFE   |cAG|   F2 B   | g2f/e/|a2f/e/|^dB
z/g/|gba|gfe   |dBG|   E2 d   |Hg2G/A/|BcA   | FG|]

